svg/Pictogram/pictograms-aem-0034-falling_from_height.svg

<?xml version="1.0" encoding="ISO-8859-1" standalone="yes"?>
<svg height="304.014" width="304.015">
  <metadata>
    <rdf:RDF xmlns:cc="http://web.resource.org/cc/" xmlns:dc="http://purl.org/dc/elements/1.1/" xmlns:rdf="http://www.w3.org/1999/02/22-rdf-syntax-ns#">
      <cc:Work rdf:about="">
        <dc:title></dc:title>
        <dc:description></dc:description>
        <dc:subject>
          <rdf:Bag>
            <rdf:li></rdf:li>
          </rdf:Bag>
        </dc:subject>
        <dc:publisher>
          <cc:Agent rdf:about="http://www.unece.org/trans/danger/publi/ghs/pictograms.html">
            <dc:title>Source: UNECE GHS of Classification and Labeling of Chemicals, Source: AEM Pictorial Database, Source: AEM Pictorial Database, Source: AEM Pictorial Database, Source: AEM Pictorial Database</dc:title>
          </cc:Agent>
        </dc:publisher>
        <dc:creator>
          <cc:Agent>
            <dc:title></dc:title>
          </cc:Agent>
        </dc:creator>
        <dc:rights>
          <cc:Agent>
            <dc:title></dc:title>
          </cc:Agent>
        </dc:rights>
        <dc:date></dc:date>
        <dc:format>image/svg+xml</dc:format>
        <dc:type rdf:resource="http://purl.org/dc/dcmitype/StillImage"/>
        <cc:license rdf:resource="http://en.wikipedia.org/wiki/Public_domain"/>
        <dc:language>en</dc:language>
      </cc:Work>
    </rdf:RDF>
  </metadata>
  <defs><marker id="ArrowEnd" markerHeight="3" markerUnits="strokeWidth" markerWidth="4" orient="auto" refX="0" refY="5" viewBox="0 0 10 10"><path d="M 0 0 L 10 5 L 0 10 z"/></marker><marker id="ArrowStart" markerHeight="3" markerUnits="strokeWidth" markerWidth="4" orient="auto" refX="10" refY="5" viewBox="0 0 10 10"><path d="M 10 0 L 0 5 L 10 10 z"/></marker> </defs>
  <g id="g2958" transform="matrix(1.3532768,0,0,1.3532781,-53.207834,-52.192858)">
    <path d="M 254.054 180.471L 148.034 180.471C 147.96 178.194 146.628 176.041 144.405 175.041L 111.952 158.498C 111.854 158.444 111.761 158.389 111.663 158.338L 98.3704 151.631L 116.522 136.78L 130.835 156.358C 130.854 156.385 130.878 156.416 130.897 156.448C 130.901 156.448 130.901 156.452 130.901 156.452L 130.905 156.456C 133.042 159.112 136.925 159.53 139.577 157.393C 142.233 155.256 142.651 151.374 140.515 148.717L 122.382 123.92C 120.214 121.291 116.323 120.916 113.694 123.084C 113.503 123.245 113.323 123.416 113.155 123.592L 97.8434 136.131L 97.8434 114.737L 114.636 102.221C 114.636 102.221 114.636 102.221 114.636 102.221L 135.98 86.4484C 137.991 85.4324 139.374 83.3504 139.37 80.9444C 139.37 80.2064 139.237 79.5024 138.999 78.8464C 138.987 78.8154 138.976 78.7804 138.96 78.7454C 138.921 78.6354 138.878 78.5264 138.827 78.4204C 138.64 77.9874 138.405 77.5654 138.112 77.1704C 136.077 74.4404 132.21 73.8744 129.48 75.9094L 107.597 92.0844C 107.589 92.0884 107.577 92.0924 107.569 92.1004L 107.331 92.2764C 107.331 92.2804 107.327 92.2804 107.327 92.2804C 107.327 92.2804 107.323 92.2844 107.323 92.2844L 107.284 92.3154L 107.265 92.3274C 107.265 92.3274 107.265 92.3274 107.265 92.3314L 99.0154 98.4754L 99.0194 98.4714C 96.6014 100.366 93.5584 101.495 90.2494 101.495C 84.6084 101.495 79.7374 98.2134 77.4334 93.4564L 77.5734 93.8464L 74.3124 87.0024C 74.3084 86.9984 74.3044 86.9954 74.3044 86.9874L 62.8514 63.2994C 62.8394 63.2764 62.8274 63.2564 62.8154 63.2334C 62.7694 63.1394 62.7184 63.0454 62.6634 62.9564C 61.0974 60.1314 57.5854 58.9754 54.6284 60.3854C 51.6324 61.8154 50.3234 65.3424 51.6084 68.3664C 51.6244 68.4014 51.6404 68.4324 51.6514 68.4674C 51.6754 68.5144 51.6904 68.5654 51.7144 68.6084L 63.2184 92.4054L 73.1634 113.272L 73.1634 148.647C 73.0854 150.448 73.8004 152.206 75.1244 153.436C 75.1444 153.456 75.1634 153.475 75.1834 153.495C 75.2884 153.592 75.4054 153.686 75.5224 153.776C 75.5694 153.815 75.6164 153.85 75.6634 153.889C 75.7614 153.959 75.8624 154.026 75.9644 154.092C 76.0384 154.139 76.1084 154.19 76.1874 154.233C 76.2724 154.284 76.3664 154.331 76.4564 154.377C 76.5544 154.428 76.6474 154.483 76.7494 154.53C 76.7694 154.538 76.7844 154.545 76.8004 154.553L 106.241 169.428C 106.245 169.428 106.245 169.428 106.249 169.428C 106.249 169.428 106.249 169.432 106.253 169.432L 106.257 169.432C 106.292 169.452 106.327 169.463 106.366 169.483C 106.405 169.498 106.44 169.518 106.48 169.538L 139.081 186.163C 139.167 186.206 139.245 186.252 139.335 186.291C 139.335 186.291 139.339 186.295 139.339 186.295L 139.343 186.295C 140.593 186.862 141.929 186.963 143.175 186.694L 143.175 200.381L 161.319 200.381L 161.319 254.057L 173.163 254.057L 173.163 200.381L 254.054 200.381L 254.054 180.475" style="stroke:none; fill-rule:evenodd; fill:#000000"/>
    <path d="M 90.6164 96.8854C 96.5814 96.8854 101.413 92.0534 101.413 86.0884C 101.413 80.1274 96.5814 75.2914 90.6164 75.2914C 84.6554 75.2914 79.8194 80.1274 79.8194 86.0884C 79.8194 92.0534 84.6554 96.8854 90.6164 96.8854" style="stroke:none; fill-rule:evenodd; fill:#000000"/>
    <path d="M 29.6204 265.393L 2.62042 265.393" style="stroke:#000000; stroke-width:0.5; fill:none"/>
    <path d="M 38.6204 274.393L 38.6204 301.393" style="stroke:#000000; stroke-width:0.5; fill:none"/>
    <path d="M 29.6204 38.6204L 2.62042 38.6204" style="stroke:#000000; stroke-width:0.5; fill:none"/>
    <path d="M 38.6204 29.6204L 38.6204 2.62042" style="stroke:#000000; stroke-width:0.5; fill:none"/>
    <path d="M 274.394 38.6204L 301.394 38.6204" style="stroke:#000000; stroke-width:0.5; fill:none"/>
    <path d="M 265.394 29.6204L 265.394 2.62042" style="stroke:#000000; stroke-width:0.5; fill:none"/>
    <path d="M 274.394 265.393L 301.394 265.393" style="stroke:#000000; stroke-width:0.5; fill:none"/>
    <path d="M 265.394 274.393L 265.394 301.393" style="stroke:#000000; stroke-width:0.5; fill:none"/>
  </g>
</svg>

<svg viewBox="0 0 304.01 304.01"><g transform="matrix(1.35328 0 0 1.35328-53.21-52.19)" fill-rule="evenodd"><path d="m254.05 180.47h-106.02c-.074-2.277-1.406-4.43-3.629-5.43l-32.453-16.543c-.098-.054-.191-.109-.289-.16l-13.293-6.707 18.15-14.851 14.313 19.578c.019.027.043.058.062.09.004 0 .004.004.004.004l.004.004c2.137 2.656 6.02 3.074 8.672.937 2.656-2.137 3.074-6.02.938-8.676l-18.13-24.797c-2.168-2.629-6.06-3-8.688-.836-.191.161-.371.332-.539.508l-15.312 12.539v-21.394l16.793-12.516c0 0 0 0 0 0l21.344-15.773c2.01-1.016 3.394-3.098 3.39-5.504 0-.738-.133-1.442-.371-2.098-.012-.031-.023-.066-.039-.101-.039-.11-.082-.219-.133-.325-.187-.433-.422-.855-.715-1.25-2.035-2.73-5.902-3.296-8.632-1.261l-21.883 16.17c-.008.004-.02.008-.028.016l-.238.176c0 .004-.004.004-.004.004 0 0-.004.004-.004.004l-.039.031-.019.012c0 0 0 0 0 .004l-8.25 6.144.004-.004c-2.418 1.895-5.461 3.02-8.77 3.02-5.641 0-10.512-3.282-12.816-8.04l.14.39-3.261-6.844c-.004-.004-.008-.007-.008-.015l-11.453-23.688c-.012-.023-.024-.043-.036-.066-.046-.094-.097-.188-.152-.277-1.566-2.825-5.078-3.981-8.04-2.571-2.996 1.43-4.305 4.957-3.02 7.981.016.035.032.066.043.101.024.047.039.098.063.141l11.504 23.797 9.945 20.867v35.37c-.078 1.801.637 3.559 1.961 4.789.02.02.039.039.059.059.105.097.222.191.339.281.047.039.094.074.141.113.098.07.199.137.301.203.074.047.144.098.223.141.085.051.179.098.269.144.098.051.191.106.293.153.02.008.035.015.051.023l29.441 14.875c.004 0 .004 0 .008 0 0 0 0 .004.004.004h.004c.035.02.07.031.109.051.039.015.074.035.114.055l32.601 16.625c.086.043.164.089.254.128 0 0 .004.004.004.004h.004c1.25.567 2.586.668 3.832.399v13.687h18.14v53.676h11.844v-53.676h80.891v-19.906"/><path d="m90.62 96.89c5.965 0 10.797-4.832 10.797-10.797 0-5.961-4.832-10.797-10.797-10.797-5.961 0-10.797 4.836-10.797 10.797 0 5.965 4.836 10.797 10.797 10.797"/></g></svg>
